icons/glyphs/glyph-vlc.svg

<?xml version="1.0" encoding="UTF-8" standalone="no"?><svg height="22" viewBox="0 0 22 22" width="22" xmlns="http://www.w3.org/2000/svg"><sodipodi:namedview/><metadata><rdf:RDF><cc:Work><dc:format>image/svg+xml</dc:format><dc:type/><dc:title/></cc:Work></rdf:RDF></metadata><path d="m10.947354.00000015a1.1175117.3141681 0 0 0 -1.1135613.2999276h-.0064l-.918937 2.72487295h.01914a2.0381083.51826435 0 0 0 -.01914.070196 2.0381083.51826435 0 0 0 2.0388693.5168964 2.0381083.51826435 0 0 0 2.038869-.5168964 2.0381083.51826435 0 0 0 -.02233-.070196h.01274l-.915715-2.68977525a1.1175117.3141681 0 0 0  .0033-.019145 1.1175117.3141681 0 0 0 -1.116829-.3158806zm-3.1811463 6.94619275-1.215663 3.9118191a4.4573289 1.3920987 0 0 0 -.05424.17549l-.0064.02233h.0032a4.4573289 1.3920987 0 0 0 -.0032.02233 4.4573289 1.3920987 0 0 0 4.4574393 1.39116 4.4573289 1.3920987 0 0 0 4.451051-1.356056h.0033l-.0033-.0064a4.4573289 1.3920987 0 0 0  .0064-.02872 4.4573289 1.3920987 0 0 0 -.09253-.274402l-1.103997-3.8575511h-.09892a3.2422926 1.0126225 0 0 1 -3.161994.7944887 3.2422926 1.0126225 0 0 1 -3.1588113-.7944887zm-3.6757065 6.6430741c-.3826994 0-.6304899.34006-.6891951.520088l-2.3962291 7.345033c-.094074.288487.406039.545612.9093545.545612h18.1711385c.503316 0 1.003421-.257125.909355-.545612l-2.396229-7.345033c-.05871-.180028-.306492-.520088-.689195-.520088h-1.917621a5.4397237 2.3331055 0 0 1  .306309.765772 5.4397237 2.3331055 0 0 1 -5.440176 2.332416 5.4397237 2.3331055 0 0 1 -5.4401732-2.332416 5.4397237 2.3331055 0 0 1  .3094996-.765772z" fill="#fff"/></svg>

<?xml version="1.0" encoding="UTF-8" standalone="no"?>
<!-- Created with Inkscape (http://www.inkscape.org/) -->

<svg
   xmlns:dc="http://purl.org/dc/elements/1.1/"
   xmlns:cc="http://creativecommons.org/ns#"
   xmlns:rdf="http://www.w3.org/1999/02/22-rdf-syntax-ns#"
   xmlns:svg="http://www.w3.org/2000/svg"
   xmlns="http://www.w3.org/2000/svg"
   xmlns:sodipodi="http://sodipodi.sourceforge.net/DTD/sodipodi-0.dtd"
   xmlns:inkscape="http://www.inkscape.org/namespaces/inkscape"
   width="22"
   height="22"
   viewBox="0 0 22 22"
   version="1.1"
   id="svg8"
   inkscape:version="0.92+devel 15645 custom"
   sodipodi:docname="glyph-vlc.svg">
  <defs
     id="defs2" />
  <sodipodi:namedview
     id="base"
     pagecolor="#002266"
     bordercolor="#ffffff"
     borderopacity="0.46666667"
     inkscape:pageopacity="0"
     inkscape:pageshadow="2"
     inkscape:zoom="32"
     inkscape:cx="12.783653"
     inkscape:cy="12.746379"
     inkscape:document-units="px"
     inkscape:current-layer="svg8"
     inkscape:document-rotation="0"
     showgrid="false"
     inkscape:showpageshadow="false"
     borderlayer="true"
     units="px"
     fit-margin-top="0"
     fit-margin-left="0"
     fit-margin-right="0"
     fit-margin-bottom="0"
     inkscape:window-width="1920"
     inkscape:window-height="1051"
     inkscape:window-x="0"
     inkscape:window-y="36"
     inkscape:window-maximized="1"
     inkscape:snap-bbox="true"
     inkscape:object-paths="true" />
  <metadata
     id="metadata5">
    <rdf:RDF>
      <cc:Work
         rdf:about="">
        <dc:format>image/svg+xml</dc:format>
        <dc:type
           rdf:resource="http://purl.org/dc/dcmitype/StillImage" />
        <dc:title></dc:title>
      </cc:Work>
    </rdf:RDF>
  </metadata>
  <path
     style="opacity:1;fill:#ffffff;stroke:none;stroke-width:0.65578997"
     d="m 10.947354,1.5e-7 a 1.1175117,0.3141681 0 0 0 -1.1135613,0.2999276 h -0.0064 L 8.9084557,3.0248007 h 0.01914 a 2.0381083,0.51826435 0 0 0 -0.01914,0.070196 2.0381083,0.51826435 0 0 0 2.0388693,0.5168964 2.0381083,0.51826435 0 0 0 2.038869,-0.5168964 2.0381083,0.51826435 0 0 0 -0.02233,-0.070196 h 0.01274 L 12.060889,0.33502545 a 1.1175117,0.3141681 0 0 0 0.0033,-0.019145 A 1.1175117,0.3141681 0 0 0 10.94736,-1.5e-7 Z M 7.7662077,6.9461929 6.5505447,10.858012 a 4.4573289,1.3920987 0 0 0 -0.05424,0.17549 l -0.0064,0.02233 h 0.0032 a 4.4573289,1.3920987 0 0 0 -0.0032,0.02233 4.4573289,1.3920987 0 0 0 4.4574393,1.39116 4.4573289,1.3920987 0 0 0 4.451051,-1.356056 h 0.0033 l -0.0033,-0.0064 a 4.4573289,1.3920987 0 0 0 0.0064,-0.02872 4.4573289,1.3920987 0 0 0 -0.09253,-0.274402 L 14.208268,6.9461929 h -0.09892 A 3.2422926,1.0126225 0 0 1 10.947354,7.7406816 3.2422926,1.0126225 0 0 1 7.7885427,6.9461929 Z M 4.0905012,13.589267 c -0.3826994,0 -0.6304899,0.34006 -0.6891951,0.520088 L 1.005077,21.454388 C 0.911003,21.742875 1.411116,22 1.9144315,22 H 20.08557 c 0.503316,0 1.003421,-0.257125 0.909355,-0.545612 l -2.396229,-7.345033 c -0.05871,-0.180028 -0.306492,-0.520088 -0.689195,-0.520088 H 15.99188 a 5.4397237,2.3331055 0 0 1 0.306309,0.765772 5.4397237,2.3331055 0 0 1 -5.440176,2.332416 5.4397237,2.3331055 0 0 1 -5.4401732,-2.332416 5.4397237,2.3331055 0 0 1 0.3094996,-0.765772 z"
     id="rect4275"
     inkscape:connector-curvature="0"
     inkscape:label="glyph" />
</svg>
